X:1
T:McKenzie's Farewell to Sutherland
M:6/8
L:1/8
Q:80
C:
S:March
K:HP
|: e|
{g}A2{GdGe}A{gfg}f2{g}d|
{g}e3/2{g}f/2a{fg}f3/2e/2{g}d|
{g}A2{GdGe}A{gfg}f2{g}e|  !
{g}d2{GBG}A{gBd}B2d{g}A2{GdGe}A{gfg}f2{g}d|
{g}e3/2{g}f/2a{fg}f3/2e/2{g}d|
{g}e3/2{g}f/2a{fg}f2{g}e|  !
{g}d2{GBG}A{GAG}A2:| |:
{gf}g|
a2{GdG}a{fg}f3/2e/2{g}d|  !
a2{GdG}a{fg}f3/2e/2{g}d|
a2{GdG}a{fg}f3/2e/2{g}d|
{gfg}f2{g}e{A}e3/2{g}f/2g|1 a2{GdG}a{fg}f3/2e/2{g}d|  !
{g}f/2a3/2d{gfg}f3/2e/2{g}d|
{g}e3/2f/2a{fg}f2e|
{g}d2{GBG}A{GAG}A2:|2  !
a2{GdG}a{fg}f2{GdG}f|
{gef}e2{GdG}e{gf}g3|
{a}f/2a3/2g{fg}f2{g}e|  !
{g}d2{GBG}A{GAG}A2|]

